svg/set/5ED/80.svg

<?xml version="1.0" encoding="UTF-8" standalone="no"?>
<svg xmlns="http://www.w3.org/2000/svg" version="1.1" width="600" height="517.92493">
  <path d="m 260.25406,129.8393 43.41617,110.33718 45.55182,-110.33718 -88.96799,0 z m 314.1694,388.0856 -548.84692,0 0,-131.32274 157.34686,0 L 73.37909,129.92882 0,129.92882 0,0 l 600,0 0,129.92882 -75.23339,0 C 516.1729,150.6586 417.35794,387.94493 417.35794,387.94493 l 157.06552,0 0,129.97997 z" style="fill:#808080"/>
  <path d="m 303.06918,313.70903 87.216,-211.35172 -170.3909,0 83.1749,211.35172 z m -250.02344,100.36233 171.43953,0 -132.92126,-311.61174 -64.09481,0 0,-75.02878 545.04881,0 0,75.02878 -66.03862,0 -130.2741,312.9673 170.73618,0 0,74.97762 -493.89573,0 0,-76.33318 z"/>
</svg>

<?xml version="1.0" encoding="UTF-8" standalone="no"?>
<svg
   version="1.1"
   width="600"
   height="517.92493"
   id="svg2"
   xmlns="http://www.w3.org/2000/svg"
   xmlns:svg="http://www.w3.org/2000/svg">
  <defs
     id="defs2" />
  <path
     d="m 260.25406,129.8393 43.41617,110.33718 45.55182,-110.33718 z m 314.1694,388.0856 H 25.57654 V 386.60216 H 182.9234 L 73.37909,129.92882 H 0 V 0 H 600 V 129.92882 H 524.76661 C 516.1729,150.6586 417.35794,387.94493 417.35794,387.94493 h 157.06552 z"
     style="fill:#808080"
     id="path1" />
  <path
     d="m 303.06918,313.70903 87.216,-211.35172 H 219.89428 Z M 53.04574,414.07136 H 224.48527 L 91.56401,102.45962 H 27.4692 V 27.43084 h 545.04881 v 75.02878 h -66.03862 l -130.2741,312.9673 h 170.73618 v 74.97762 H 53.04574 Z"
     id="path2" />
</svg>
